X: 2017
T: Yârim Gitti Çeşmeye
C: (Anonim)
O: Turkey
F: http://compmusic.upf.edu/node/140
N: suzinak-zirgule--turku--nimsofyan--yarim_gitti--istanbul
N: makam= suzinak-zirgule
N: form= turku
N: usul= nimsofyan = 2/4
M: 2/4
L: 1/16
K: C _1/4B _7/8e _7/8A ^f
Q: 1/4=102
%%MIDI tuningsystem comma53
Bcdc d.G.d2  | edef d4  | Bcde dedc  | BcBA G4  | 
w:  ARANAĞME  |   |   |   | 
Bcdc d.G.d2  | edef d4  | Bcde dedc  | BcBA G4  | 
w:  ARANAĞME  |   |   |   | 
B2c2 d2d2  | d2ef d2.G.G  | d2e2 f2g2  | \
w:  Yâ rim  git ti   |  çeş me *  ye   SAZ  |  A man  gü zel   | 
feed d2.B/.A/.G  | 
w:  oğ *  *  *  lan   SAZ  | 
B2c2 d2d2  | d2ef d2.G.G  | d2e2 f2g2  | \
w:  Yâ rim  git ti   |  çeş me *  ye   SAZ  |  A man  gü zel   | 
feed d2.G.G  | 
w:  oğ *  *  *  lan   SAZ  | 
d2d2 ee2d  | c2Bc d/e3/2d{e}c  | B4 c4  | \
w:  Yâ re le rim   |  deş me *  ye    |  Yâr  yâr   | 
BAAG d4  | d2d2 ee2d  | 
w:  yâr_ *  a *  man    |  Yâ re le rim   | 
c2Bc d/e3/2d{e}c  | B4 c4  | BAAG GB/c/.d2  | \
w:  deş me *  ye    |  Yâr  yâr   |  yâr_ *  a *  man   SAZ  | 
B2c2 d2d2  | 
w:  Ne  is ter sen   | 
d2ef d2.G.G  | d2e2 f2g2  | feed d2.B/.A/.G  | \
w:  ve ri *  rim   SAZ  |  A man  gü zel   |  oğ *  *  *  lan   SAZ  | 
B2c2 d2d2  | 
w:  Ne  is ter sen   | 
d2ef d2.G.G  | d2e2 f2g2  | feed d2.G.G  | \
w:  ve ri *  rim   SAZ  |  A man  gü zel   |  oğ *  *  *  lan   SAZ  | 
d2d2 e2ed  | 
w:  E lin den  su   | 
c2Bc d3/2e/d{e}c  | B4 c3B  | BAAG d4  | \
w:  iç me *  ye    |  Yâr  yâr   |  yâr_ *  a *  man    | 
d2d2 e2ed  | c2Bc d3/2e/d{e}c  | 
w:  E lin den  su   |  iç me *  ye    | 
B4 c3B  | BAAG G4  | Bcdc d.G.d2  | edef d4  | \
w:  Yâr  yâr   |  yâr_ *  a *  man    |  ARANAĞME  |   | 
Bcde dedc  | 
w:   | 
BcBA G4  | Bcdc d.G.d2  | edef d4  | Bcde dedc  | 
w:   |  ARANAĞME  |   |   | 
BcBA G4  | B2c2 d2d2  | d2ef d2.G.G  | d2e2 f2g2  | \
w:   |  Yâ rim  git ti   |  çeş me *  ye   SAZ  |  A man  gü zel   | 
feed d2.B/.A/.G  | 
w:  oğ *  *  *  lan   SAZ  | 
B2c2 d2d2  | d2ef d2.G.G  | d2e2 f2g2  | \
w:  Yâ rim  git ti   |  çeş me *  ye   SAZ  |  A man  gü zel   | 
feed d2.G.G  | 
w:  oğ *  *  *  lan   SAZ  | 
d2d2 ee2d  | c2Bc d/e3/2d{e}c  | B4 c4  | \
w:  Yâ re le rim   |  deş me *  ye    |  Yâr  yâr   | 
BAAG d4  | d2d2 ee2d  | 
w:  yâr_ *  a *  man    |  Yâ re le rim   | 
c2Bc d/e3/2d{e}c  | B4 c4  | BAAG GB/c/.d2  | \
w:  deş me *  ye    |  Yâr  yâr   |  yâr_ *  a *  man   SAZ  | 
B2c2 d2d2  | 
w:  Ne  is ter sen   | 
d2ef d2.G.G  | d2e2 f2g2  | feed d2.B/.A/.G  | \
w:  ve ri *  rim   SAZ  |  A man  gü zel   |  oğ *  *  *  lan   SAZ  | 
B2c2 d2d2  | 
w:  Ne  is ter sen   | 
d2ef d2.G.G  | d2e2 f2g2  | feed d2.G.G  | \
w:  ve ri *  rim   SAZ  |  A man  gü zel   |  oğ *  *  *  lan   SAZ  | 
d2d2 e2ed  | 
w:  E lin den  su   | 
c2Bc d3/2e/d{e}c  | B4 c3B  | BAAG d4  | \
w:  iç me *  ye    |  Yâr  yâr   |  yâr_ *  a *  man    | 
d2d2 e2ed  | c2Bc d3/2e/d{e}c  | 
w:  E lin den  su   |  iç me *  ye    | 
B4 c3B  | BAAG G4  | |


